app/assets/images/payment_icons/centi.svg

<svg xmlns="http://www.w3.org/2000/svg" width="38" height="24" viewBox="0 0 38 24" fill="none" aria-labelledby="pi-centi" role="img"><title id="pi-centi">Centi</title><rect width="38" height="24" fill="white"/><path fill-rule="evenodd" clip-rule="evenodd" d="M8.11001 15.76C5.94001 15.76 4.32001 14.15 4.32001 12.01C4.32001 9.87 5.94001 8.25 8.11001 8.25C9.98001 8.25 11.43 9.49 11.72 11.3H9.73001C9.49001 10.57 8.87001 10.09 8.12001 10.09C7.11001 10.09 6.37001 10.9 6.37001 12.01C6.37001 13.12 7.11001 13.92 8.12001 13.92C8.91001 13.92 9.53001 13.4 9.73001 12.61H11.74C11.47 14.49 10.01 15.77 8.11001 15.77V15.76ZM12.5 8.43H17.06V10.11H12.5V8.43ZM12.5 11.2H17.06V12.88H12.5V11.2ZM12.5 13.91H17.06V15.59H12.5V13.91ZM22.55 8.42H24.46V15.57H22.84L20.01 11.69V15.57H18.1V8.42H19.82L22.56 12.17V8.42H22.55ZM31 8.42V10.19H29.06V15.57H27.09V10.19H25.15V8.42H31ZM31.69 15.57V8.42H33.68V15.57H31.69Z" fill="black"/></svg>

<svg xmlns="http://www.w3.org/2000/svg" width="38" height="24" fill="none" aria-labelledby="pi-centi" role="img" viewBox="0 0 38 24"><title id="pi-centi">Centi</title><path fill="#fff" d="M0 0h38v24H0z"/><path fill="#000" fill-rule="evenodd" d="M8.11 15.76c-2.17 0-3.79-1.61-3.79-3.75s1.62-3.76 3.79-3.76c1.87 0 3.32 1.24 3.61 3.05H9.73c-.24-.73-.86-1.21-1.61-1.21-1.01 0-1.75.81-1.75 1.92s.74 1.91 1.75 1.91c.79 0 1.41-.52 1.61-1.31h2.01c-.27 1.88-1.73 3.16-3.63 3.16zm4.39-7.33h4.56v1.68H12.5zm0 2.77h4.56v1.68H12.5zm0 2.71h4.56v1.68H12.5zm10.05-5.49h1.91v7.15h-1.62l-2.83-3.88v3.88H18.1V8.42h1.72l2.74 3.75V8.42zm8.45 0v1.77h-1.94v5.38h-1.97v-5.38h-1.94V8.42zm.69 7.15V8.42h1.99v7.15z" clip-rule="evenodd"/></svg>
